X: 5
M: 6/8
L: 1/8
K: Gmaj
|: GAG GAB | ded dBG | AGA BGD | EFE E2 D \
|  GAG GAB | ded dBG | AGA BGD |1 E2 FG2 D :|2 E2 FG2 B ||
|: def gag | fed edB | def gag | fed e2 d \
|  def gag | fed efg | dBG GAB | ded dBG |
|  AGA BGD | EFE E2 D | GAG GBd | gfe dBG \
|  AGA BGD |1 E2 FG2 B :|2 E2 FG2 D |]


